assets/img/braze_icons/sticker-square.svg

<svg fill="none" height="24" viewBox="0 0 24 24" width="24" xmlns="http://www.w3.org/2000/svg"><g fill="#801ed7"><path d="m12 2.8c0-.28002 0-.42004-.0545-.52699-.0479-.09408-.1244-.17057-.2185-.21851-.107-.0545-.2467-.0545-.5262-.0545-.9449 0-2.50692 0-3.4421.00001-.80497-.00002-1.46933-.00003-2.01052.04419-.5621.04593-1.07881.14449-1.56414.39178-.75265.38349-1.36457.99542-1.74806 1.74806-.2473.48534-.34586 1.00204-.39179 1.56414-.04421.54119-.0442 1.20555-.04419 2.01051v8.48261c-.00001.805-.00002 1.4693.04419 2.0105.04593.5621.14449 1.0788.39179 1.5642.38349.7526.99541 1.3645 1.74806 1.748.48533.2473 1.00204.3459 1.56414.3918.54118.0442 1.20554.0442 2.0105.0442h8.48262c.805 0 1.4693 0 2.0105-.0442.5621-.0459 1.0788-.1445 1.5642-.3918.7526-.3835 1.3645-.9954 1.748-1.748.2473-.4854.3459-1.0021.3918-1.5642.0442-.5412.0442-1.2055.0442-2.0105 0-.9352 0-2.4972 0-3.4421 0-.2795 0-.4193-.0545-.5263-.0479-.094-.1244-.1705-.2185-.2185-.107-.0545-.247-.0545-.527-.0545h-3.4413c-.805.0001-1.4693.0001-2.0105-.0441-.5621-.046-1.0788-.1445-1.5642-.3918-.7526-.3835-1.3645-.9954-1.748-1.74809-.2473-.48534-.3459-1.00204-.3918-1.56414-.0442-.54119-.0442-1.20555-.0442-2.01051z"/><path d="m19.908 9.99994c.2935 0 .4403 0 .5605-.0737.1699-.10412.2715-.34948.2249-.54322-.033-.13712-.1287-.23274-.3201-.42399l-5.3323-5.33231c-.1913-.19149-.287-.28723-.4241-.3202-.1937-.04656-.439.05498-.5432.22482-.0737.12026-.0737.26708-.0737.56071v2.10789c0 .85658.0008 1.43888.0376 1.88897.0358.43841.1007.66261.1804.81901.1917.37633.4977.68229.874.87404.1564.07969.3806.14461.819.18043.4501.03678 1.0324.03755 1.889.03755z"/></g></svg>

<svg width="24" height="24" viewBox="0 0 24 24" fill="none" xmlns="http://www.w3.org/2000/svg">
<path d="M12 2.8C12 2.51998 12 2.37996 11.9455 2.27301C11.8976 2.17893 11.8211 2.10244 11.727 2.0545C11.62 2 11.4803 2 11.2008 2C10.2559 2 8.69388 2 7.7587 2.00001C6.95373 1.99999 6.28937 1.99998 5.74818 2.0442C5.18608 2.09013 4.66937 2.18869 4.18404 2.43598C3.43139 2.81947 2.81947 3.4314 2.43598 4.18404C2.18868 4.66938 2.09012 5.18608 2.04419 5.74818C1.99998 6.28937 1.99999 6.95373 2 7.75869V16.2413C1.99999 17.0463 1.99998 17.7106 2.04419 18.2518C2.09012 18.8139 2.18868 19.3306 2.43598 19.816C2.81947 20.5686 3.43139 21.1805 4.18404 21.564C4.66937 21.8113 5.18608 21.9099 5.74818 21.9558C6.28936 22 6.95372 22 7.75868 22H16.2413C17.0463 22 17.7106 22 18.2518 21.9558C18.8139 21.9099 19.3306 21.8113 19.816 21.564C20.5686 21.1805 21.1805 20.5686 21.564 19.816C21.8113 19.3306 21.9099 18.8139 21.9558 18.2518C22 17.7106 22 17.0463 22 16.2413C22 15.3061 22 13.7441 22 12.7992C22 12.5197 22 12.3799 21.9455 12.2729C21.8976 12.1789 21.8211 12.1024 21.727 12.0544C21.62 11.9999 21.48 11.9999 21.2 11.9999H17.7587C16.9537 12 16.2894 12 15.7482 11.9558C15.1861 11.9098 14.6694 11.8113 14.184 11.564C13.4314 11.1805 12.8195 10.5686 12.436 9.81591C12.1887 9.33057 12.0901 8.81387 12.0442 8.25177C12 7.71058 12 7.04622 12 6.24126V2.8Z" fill="#801ED7"/>
<path d="M19.908 9.99994C20.2015 9.99994 20.3483 9.99994 20.4685 9.92624C20.6384 9.82212 20.74 9.57676 20.6934 9.38302C20.6604 9.2459 20.5647 9.15028 20.3733 8.95903L15.041 3.62672C14.8497 3.43523 14.754 3.33949 14.6169 3.30652C14.4232 3.25996 14.1779 3.3615 14.0737 3.53134C14 3.6516 14 3.79842 14 4.09205V6.19994C14 7.05652 14.0008 7.63882 14.0376 8.08891C14.0734 8.52732 14.1383 8.75152 14.218 8.90792C14.4097 9.28425 14.7157 9.59021 15.092 9.78196C15.2484 9.86165 15.4726 9.92657 15.911 9.96239C16.3611 9.99917 16.9434 9.99994 17.8 9.99994H19.908Z" fill="#801ED7"/>
</svg>
